assets/img/braze_icons/credit-card-download.svg

<svg fill="none" height="24" viewBox="0 0 24 24" width="24" xmlns="http://www.w3.org/2000/svg"><g fill="#801ed7"><path d="m13 15c0-.5523-.4477-1-1-1s-1 .4477-1 1v4.5858l-1.29289-1.2929c-.39053-.3905-1.02369-.3905-1.41422 0-.39052.3905-.39052 1.0237 0 1.4142l3.00001 3c.1875.1875.4419.2929.7071.2929s.5196-.1054.7071-.2929l3-3c.3905-.3905.3905-1.0237 0-1.4142s-1.0237-.3905-1.4142 0l-1.2929 1.2929z"/><path d="m5.16146 2h13.67704c.5272-.00001.982-.00003 1.3565.03057.3954.03231.7886.10362 1.167.29642.5645.28762 1.0234.74656 1.311 1.31104.1928.37838.2641.7716.2964 1.16695.0306.37456.0306.82932.0306 1.35646 0 .46312-.3754.83856-.8386.83856h-20.32281c-.46314 0-.83859-.37545-.83859-.83859-.000015-.5271-.000028-.98189.03057-1.35643.0323-.39535.10362-.78857.29641-1.16695.28762-.56448.74657-1.02343 1.31105-1.31105.37838-.19279.7716-.26411 1.16695-.29641.37455-.0306.82938-.03059 1.35648-.03057z"/><path d="m2.6 9c-.56005 0-.84008 0-1.05399.10899-.18816.09588-.34114.24886-.43702.43702-.10899.21391-.10899.49389-.10899 1.05399v3.2385c-.000015.5271-.000028.982.03057 1.3565.0323.3954.10362.7886.29641 1.167.28762.5645.74657 1.0234 1.31105 1.311.37838.1928.7716.2641 1.16695.2964.37448.0306.82912.0306 1.35612.0306h.44358c.19728 0 .29592 0 .37087-.0242.07854-.0254.11786-.048.17941-.1029.05874-.0525.12369-.1636.2536-.3858.12706-.2173.28377-.4221.47012-.6084.58579-.5858 1.35355-.8787 2.12132-.8787v-1c0-1.6569 1.3431-3 3-3s3 1.3431 3 3v1c.7678 0 1.5355.2929 2.1213.8787.1864.1863.3431.3911.4701.6084.1299.2222.1949.3333.2536.3858.0616.0549.1009.0775.1794.1029.075.0242.1736.0242.3709.0242h.4433c.527 0 .9819 0 1.3564-.0306.3954-.0323.7886-.1036 1.167-.2964.5645-.2876 1.0234-.7465 1.311-1.311.1928-.3784.2641-.7716.2964-1.167.0306-.3745.0306-.8293.0306-1.3564v-3.2386c0-.56 0-.84008-.109-1.05399-.0959-.18816-.2488-.34114-.437-.43702-.2139-.10899-.4939-.10899-1.054-.10899z"/></g></svg>

<svg width="24" height="24" viewBox="0 0 24 24" fill="none" xmlns="http://www.w3.org/2000/svg">
<path d="M13 15C13 14.4477 12.5523 14 12 14C11.4477 14 11 14.4477 11 15V19.5858L9.70711 18.2929C9.31658 17.9024 8.68342 17.9024 8.29289 18.2929C7.90237 18.6834 7.90237 19.3166 8.29289 19.7071L11.2929 22.7071C11.4804 22.8946 11.7348 23 12 23C12.2652 23 12.5196 22.8946 12.7071 22.7071L15.7071 19.7071C16.0976 19.3166 16.0976 18.6834 15.7071 18.2929C15.3166 17.9024 14.6834 17.9024 14.2929 18.2929L13 19.5858V15Z" fill="#801ED7"/>
<path d="M5.16146 2L18.8385 2C19.3657 1.99999 19.8205 1.99997 20.195 2.03057C20.5904 2.06288 20.9836 2.13419 21.362 2.32699C21.9265 2.61461 22.3854 3.07355 22.673 3.63803C22.8658 4.01641 22.9371 4.40963 22.9694 4.80498C23 5.17954 23 5.6343 23 6.16144C23 6.62456 22.6246 7 22.1614 7H1.83859C1.37545 7 1 6.62455 1 6.16141C0.999985 5.63431 0.999972 5.17952 1.03057 4.80498C1.06287 4.40963 1.13419 4.01641 1.32698 3.63803C1.6146 3.07355 2.07355 2.6146 2.63803 2.32698C3.01641 2.13419 3.40963 2.06287 3.80498 2.03057C4.17953 1.99997 4.63436 1.99998 5.16146 2Z" fill="#801ED7"/>
<path d="M2.6 9C2.03995 9 1.75992 9 1.54601 9.10899C1.35785 9.20487 1.20487 9.35785 1.10899 9.54601C1 9.75992 1 10.0399 1 10.6V13.8385C0.999985 14.3656 0.999972 14.8205 1.03057 15.195C1.06287 15.5904 1.13419 15.9836 1.32698 16.362C1.6146 16.9265 2.07355 17.3854 2.63803 17.673C3.01641 17.8658 3.40963 17.9371 3.80498 17.9694C4.17946 18 4.6341 18 5.1611 18H5.60468C5.80196 18 5.9006 18 5.97555 17.9758C6.05409 17.9504 6.09341 17.9278 6.15496 17.8729C6.2137 17.8204 6.27865 17.7093 6.40856 17.4871C6.53562 17.2698 6.69233 17.065 6.87868 16.8787C7.46447 16.2929 8.23223 16 9 16V15C9 13.3431 10.3431 12 12 12C13.6569 12 15 13.3431 15 15V16C15.7678 16 16.5355 16.2929 17.1213 16.8787C17.3077 17.065 17.4644 17.2698 17.5914 17.4871C17.7213 17.7093 17.7863 17.8204 17.845 17.8729C17.9066 17.9278 17.9459 17.9504 18.0244 17.9758C18.0994 18 18.198 18 18.3953 18H18.8386C19.3656 18 19.8205 18 20.195 17.9694C20.5904 17.9371 20.9836 17.8658 21.362 17.673C21.9265 17.3854 22.3854 16.9265 22.673 16.362C22.8658 15.9836 22.9371 15.5904 22.9694 15.195C23 14.8205 23 14.3657 23 13.8386V10.6C23 10.04 23 9.75992 22.891 9.54601C22.7951 9.35785 22.6422 9.20487 22.454 9.10899C22.2401 9 21.9601 9 21.4 9H2.6Z" fill="#801ED7"/>
</svg>
